X:556
T:Reel 556
M:4/4
K:Dmaj
L:1/8
A|FAAF GFGA|FAAc dABG|FAAF GFdB|Adfe dcBA|FAAF GFGA|FAAF GFED|FAAc BABd|cABc d2|A2| (3FAA dF BGGB|AFAF Eeec| (3FGF AD  (3FFF Ad| (3Bcd AF GFED| (3FGF dB cFAF| (3GFE FD EDB,D| (3A,DD AD  (3Bcd AF|GFEF D2|
